X:28
T:Smash the Windows
Z: id:dc-slide-29
M:6/8
L:1/8
K:D Major
A,|DED F2A|d2f ecA|G2B F2A|E2F GFE|!
DED F2A|d2f ecA|Bgf edc|d3 d2:|!
b|a2f d2e|f2g agf|g2e c2d|e2f gfe|!
[1 a2f d2e|f2g agf|ged cde|d3 d2:|!
[2 fed gfe|agf bag|fed cde|d3 d2|]!

